X:1
T:Peal, LM
T:Peal, LM
T:Lowell Mason, 1844
T:Public Domain Courtesy of the Cyber Hymnal™
C:Lowell Mason, 1844
Z:Public Domain
Z:Courtesy of the Cyber Hymnal™
%%score 1 2 3 4
L:1/8
Q:1/4=115
M:3/4
K:A
V:1 treble 
V:2 treble 
V:3 treble-8 
V:4 bass 
V:1
 A2 A2 A2 | (A2 G2) A2 | (A2 B2) B2 | A4 z2 | B2 G2 B2 | A4 B2 | (A2 G2) F2 | G4 (GB) | A4 G2 | %9
 A4 A2 | A4 d2 | (c2 B2) A2 | A4 A2 | A4 A2 | A4 [GB]2 | A4 z2 |] %16
V:2
 C2 E2 C2 | (C2 B,2) E2 | D4 D2 | C4 z2 | E2 E2 B,2 | C2 ^D2 E2 | (C2 B,2) B,2 | B,4 E2 | E4 E2 | %9
 E4 E2 | D4 F2 | E4 E2 | E4 E2 | D4 D2 | (C2 E2) D2 | C4 z2 |] %16
V:3
 E2 E2 E2 | E4 E2 | F4 G2 | A4 z2 | G2 B2 E2 | A4 G2 | (F2 E2) ^D2 | E4 E2 | A4 B2 | c4 E2 | %10
 F4 B2 | (A2 G2) G2 | (A2 E2) =G2 | A4 A2 | (E2 [Ec]2) [EB]2 | [EA]4 z2 |] %16
V:4
 A,,2 C,2 A,,2 | (E,3 D,) C,2 | (D,2 B,,2) E,2 | A,,4 z2 | E,2 E,2 G,2 | F,4 E,2 | %6
 (A,,2 B,,2) B,,2 | E,4 (E,D,) | C,4 E,2 | A,4 C,2 | D,4 B,,2 | E,4 D,2 | C,4 A,,2 | D,4 D,2 | %14
 E,4 E,2 | A,,4 z2 |] %16

